X:137
T:Ville de Paris. THO5.137. La
M:2/4
L:1/8
B:Thompson's Complete Collection of 200 Favourite Dances Vol.5
F:https://www.libraryofdance.org/manuals/1780c-Thompson-Compleat-5.pdf
Z:vmp. Peter Dunk 2024
Q:1/4=120
K:D
dd d(f/a/)|gg g(e/g/)|fABc|(d/c/d/e/) dA|
dd d(f/a/)|gg ge/g/|fABc|d2d2:|
|:aAgA|(f/e/d/c/) dA|aAgA|(e/d/c/B/) A2|
dd d(f/a/)|gg g(e/g/)|fABc|d2 D2:|
W:
W:The 1st Couple foot it to the 2nd Lady & hands 3 round ./.
W:the same with the 2nd Gent ./:
W:lead down the middle, up again and cast off :/.
W:Allemande with Right and Left Hands :/:

